material/.icons/material/distribute-horizontal-center.svg

<svg xmlns="http://www.w3.org/2000/svg" viewBox="0 0 24 24"><path d="M8 2v3h2v14H8v3H6v-3H4V5h2V2h2m8 0v5h-2v10h2v5h2v-5h2V7h-2V2h-2z"/></svg>

<?xml version="1.0" encoding="UTF-8"?><!DOCTYPE svg PUBLIC "-//W3C//DTD SVG 1.1//EN" "http://www.w3.org/Graphics/SVG/1.1/DTD/svg11.dtd"><svg xmlns="http://www.w3.org/2000/svg" xmlns:xlink="http://www.w3.org/1999/xlink" version="1.1" id="mdi-distribute-horizontal-center" width="24" height="24" viewBox="0 0 24 24"><path d="M8 2V5H10V19H8V22H6V19H4V5H6V2H8M16 2V7H14V17H16V22H18V17H20V7H18V2H16Z" /></svg>
